X: 219
T: Sweeney's (R-118)
C: R-118
M: C|
Z: Transcribed to abc by Mary Lou Knack
R: polka
K: G
"G"d2ed B2d2| G2d2 B2d2| "C"e2ge "G"d2B2| "Am"A2G2 "D7"E4|
"G"d2ed B2d2| G2d2 B2d2| "C"e2ge "G"d2B2| "D7"A2G2 "G"G4 :|
|:\
"G"B2d2    g3e| d2B2 "D7"A2G2| "G"B2d2 "C"efge| "Am"d2B2 "D7"A4|
"G"B2d2 "C"g3e| "G"d2B2 A2G2| d2ed B2A2| "D7"BAG2 "G"G4 :|
